X: 17685
T: Holly Tree, The
R: reel
M: 4/4
K: Gmajor
~d2ge dBGB|dcBc ABGE|~D2B,D GABc|dg ~g2 fgag|
bg~g2 dBGB|dcBc ABGE|~D2B,D G,B,DG|FGAd BG G2:|
dGBd GBdg|bg~g2 dBGB|~c2 ec ~B2dB|cABG AGEG|
bg~g2 agef|gage dBGB|~c2ec gcec|BAFA G2 z2:|

